X: 61
T: No_65_Corn-grinding_Song.krn
N: Derived from No_65_Corn-grinding_Song.krn
%%abc-version 2.0
%%abcx-abcm2ps-target-version 5.9.1 (29 Sep 2008)
%%abc-creator hum2abc beta
%%abcx-conversion-date 2019/03/15 08:25:35
%%humdrum-veritas 1873028427
%%humdrum-veritas-data 2572421148
%%linebreak <none>
%%barnumbers 0
L: 1/8
M: 2/4
K: G clef=bass
[K:clef=bass][M:2/4]B,/G,3/G,2 | 
B,/G,/G, G,G, | 
z G,G,2 ]|:  
[M:3/4]G2G z G3/E/ | 
[M:2/4]G2G z | 
G2GE | 
GE D z | 
DD/D/ D/G,/B,/G,/ | 
B,/ z/ G, G, z | 
B,/G,/G, G,G, | 
[M:3/4]B,/G,3/G,2z2 | 
[M:3/8]G,G,G, :|]  
[M:2/4]B,G, G,B, | 
D3/D/ D/B,/D/B,/ | 
DB, B,G,3//B,// | 
G,G, G, z/ B,/ | 
D/G,3/ B,/G,B,/ | 
G,G, G, z | 
[M:3/4]B,/G,3/B,2G, z ]|:  
[M:2/4]E2GE | 
E/D3/ D/A,/ z/ D/ | 
DB, G, z | 
[M:3/4]B,/G,3/ D/B,3/ DD/B,/ | 
[M:2/4]G,2G,3/D,/ | 
G,G, G, z | 
B,G,/G,/ G,G, | 
G,G, G, z | 
B,G, G,G, | 
G,G, G, z | 
B,/G,3/ G,B, | 
[M:3/4]D3/D/ (3DB,D D/B,3/ | 
(3B,G,B, G,G,/G,/ G, z/ B,/ | 
[M:2/4]D/G,3/ B,/G,B,/ | 
G,G, G, z | 
[M:3/4]B,/G,3/B,2G, z :|]  
[M:2/4]B,G, G,G, | 
G,G,G,2 | 
G,2G,2 |]  



